X:1
T:Title
%%score { ( 1 3 ) | ( 2 4 ) }
L:1/8
Q:1/4=156
M:3/4
K:Db
V:1 treble nm="Grand Piano"
V:3 treble 
V:2 bass 
V:4 bass 
V:1
 [FA]2 [FB]2 [Fc]2 | [Fd]2 [Fc]2 [FB]2 | F4 F2 | F6 | [FA]2 [FB]2 [Fc]2 | [Fd]2 [Fc]2 [FB]2 | %6
w: Charles~H.~Gabriel * *||||||
 G4 G2 | G6 | [CE]2 [DF]2 [EG]2 | [Gc]2 [GB]2 [EG]2 | [DF]4 [EA]2 | [Ed]6 | c2 d2 c2 | B4 E2 | %14
w: ||||||||
 A2- [EA-]2 [FA-]2 | [GA]4 z2 | [FA]2 [FB]2 [Fc]2 | [Fd]2 [Fc]2 [FB]2 | [Gc]4 [Gc]2 | [Gc]6 | %20
w: ||||||
 [CG]2 [CA]2 [GB]2 | [Gc]2 [CGB]2 [CGA]2 | [FB]4 [FB]2 | [FB]6 | [FA]2 [F=G]2 [FA]2 | [Ec]4 [Ec]2 | %26
w: ||||||
 [=Gd]4 [EB]2 | e4- [D=Ge]2 | [CGe]2 [Gc]2 A2 | d4 G2 | F4 [CE]2 | D6 |] %32
w: ||||||
V:2
 [D,D]2 [D,D]2 [D,D]2 | [D,A,]2 [D,A,]2 [D,D]2 | [D,A,D]4 [D,A,D]2 | [D,A,D]6 | %4
 [D,D]2 [D,D]2 [D,D]2 | [D,A,]2 [D,A,]2 [D,D]2 | [E,A,C]4 [E,A,C]2 | [E,A,C]6 | %8
 [A,,A,]2 [A,,A,]2 [A,,A,]2 | [A,,A,]2 [A,,A,]2 [A,,A,]2 | [D,A,]4 [C,A,]2 | [B,,=G,B,]6 | %12
 [E,A,E]2 [E,B,E]2 [E,A,E]2 | [E,=G,D]4 [E,G,D]2 | z2 C2 D2 | E4 z2 | [D,D]2 [D,D]2 [D,D]2 | %17
 [D,A,]2 [D,A,]2 [D,A,]2 | [E,A,]4 [E,A,]2 | [E,A,]6 | [A,,A,]2 [A,,A,]2 [A,,A,]2 | %21
 [A,,A,]2 A,,2 A,,2 | [D,D]4 [D,D]2 | [D,D]6 | [=D,_C]2 [D,C]2 [D,C]2 | [E,A,]4 [E,A,]2 | %26
 [E,B,]4 [D,=G,]2 | [C,A,]4 B,,2 | A,,2 [A,,A,]2 [G,A,E]2 | [F,A,D]4 [G,B,D]2 | [A,D]4 [A,,G,]2 | %31
 [D,F,]6 |] %32
V:3
 x6 | x6 | x6 | x6 | x6 | x6 | x6 | x6 | x6 | x6 | x6 | x6 | x6 | x6 | [A,C]2 z2 z2 | x6 | x6 | %17
 x6 | x6 | x6 | x6 | x6 | x6 | x6 | x6 | x6 | x6 | A4 z2 | x6 | x6 | x6 | x6 |] %32
V:4
 x6 | x6 | x6 | x6 | x6 | x6 | x6 | x6 | x6 | x6 | x6 | x6 | x6 | x6 | A,,6- | A,,4 z2 | x6 | x6 | %18
 x6 | x6 | x6 | x6 | x6 | x6 | x6 | x6 | x6 | x6 | x6 | x6 | x6 | x6 |] %32

